lib/svgs/upload-file.svg

<?xml version="1.0" encoding="UTF-8" standalone="no"?>
<svg width="20px" height="20px" viewBox="0 0 20 20" version="1.1" xmlns="http://www.w3.org/2000/svg" xmlns:xlink="http://www.w3.org/1999/xlink">
    <defs></defs>
    <g id="Icons" stroke="none" stroke-width="1" fill="none" fill-rule="evenodd">
        <g id="Web" transform="translate(-289.000000, -1564.000000)" fill="#000000">
            <g id="file/upload-file" transform="translate(289.000000, 1564.000000)">
                <path d="M16.331,7.307 L11.493,2.469 C11.193,2.169 10.786,2 10.361,2 L5.6,2 C4.72,2 4,2.72 4,3.6 L4,16.4 C4,17.28 4.72,18 5.6,18 L15.2,18 C16.08,18 16.8,17.28 16.8,16.4 L16.8,8.439 C16.8,8.014 16.631,7.607 16.331,7.307 M15.2,16.8 L5.6,16.8 C5.383,16.8 5.2,16.617 5.2,16.4 L5.2,3.6 C5.2,3.383 5.383,3.2 5.6,3.2 L10.001,3.2 L10.001,7.083 C10.001,8 10.751,8.75 11.668,8.75 L15.6,8.75 L15.6,16.4 C15.6,16.617 15.417,16.8 15.2,16.8 M11.201,3.874 L14.877,7.55 L11.668,7.55 C11.415,7.55 11.201,7.336 11.201,7.083 L11.201,3.874 M8.83375,12.6742 L9.79975,11.7072 L9.79975,15.2582 C9.79975,15.5902 10.06875,15.8592 10.39975,15.8592 C10.73175,15.8592 11.00075,15.5902 11.00075,15.2582 L11.00075,11.7072 L11.96675,12.6742 C12.20075,12.9082 12.58075,12.9082 12.81475,12.6742 C13.04975,12.4402 13.04975,12.0602 12.81475,11.8262 L10.82475,9.8352 C10.71175,9.7212 10.55975,9.6592 10.39975,9.6592 C10.24075,9.6592 10.08775,9.7212 9.97575,9.8352 L7.98475,11.8262 C7.75075,12.0602 7.75075,12.4402 7.98475,12.6742 C8.21875,12.9082 8.59875,12.9082 8.83375,12.6742" id="Shape"></path>
            </g>
        </g>
    </g>
</svg>

<svg xmlns="http://www.w3.org/2000/svg" viewBox="0 0 20 20">
    <path fill="#000" fill-rule="evenodd" d="M16.331 7.307l-4.838-4.838A1.6 1.6 0 0 0 10.361 2H5.6C4.72 2 4 2.72 4 3.6v12.8c0 .88.72 1.6 1.6 1.6h9.6c.88 0 1.6-.72 1.6-1.6V8.439a1.6 1.6 0 0 0-.469-1.132M15.2 16.8H5.6a.405.405 0 0 1-.4-.4V3.6c0-.217.183-.4.4-.4h4.401v3.883c0 .917.75 1.667 1.667 1.667H15.6v7.65c0 .217-.183.4-.4.4M11.201 3.874l3.676 3.676h-3.209a.473.473 0 0 1-.467-.467V3.874m-2.367 8.8l.966-.967v3.551a.6.6 0 1 0 1.2 0v-3.55l.967.966a.6.6 0 0 0 .848-.848l-1.99-1.99a.595.595 0 0 0-.85 0l-1.99 1.99a.6.6 0 1 0 .849.848"/>
</svg>
